dist/svg/partner-o.svg

<svg width="17" height="16" viewBox="0 0 17 16" fill="rgb(34, 34, 34)" xmlns="http://www.w3.org/2000/svg"><title>partner-o</title><path d="M15.81 5.04999L12.75 1.32999C12.604 1.15299 12.385 1.04099 12.139 1.04099C12.031 1.04099 11.928 1.06299 11.834 1.10199L11.839 1.09999C10.957 1.47099 9.89602 1.81399 8.80102 2.07199L8.65902 2.09999C8.22302 2.19499 7.72302 2.24999 7.20902 2.24999H6.37902C5.56102 2.05099 4.89402 1.84499 4.24202 1.60599L4.37902 1.64999L3.65902 1.40999H3.43902C3.16702 1.41299 2.92802 1.55399 2.79102 1.76699L2.78902 1.76999L0.119019 5.76999C0.0410186 5.89299 -0.00598145 6.04399 -0.00598145 6.20499C-0.00598145 6.36598 0.0410186 6.51699 0.121019 6.64299L0.119019 6.63999C0.657019 7.65999 1.21102 8.53098 1.82602 9.35198L1.78902 9.29998C1.61902 9.52798 1.51002 9.80898 1.48902 10.115V10.12C1.48702 10.15 1.48602 10.186 1.48602 10.221C1.48602 10.597 1.61902 10.943 1.84102 11.212L1.83902 11.209C2.01402 11.42 2.24502 11.58 2.50902 11.666L2.51902 11.669C2.49002 11.745 2.46602 11.836 2.45002 11.93L2.44902 11.939C2.44702 11.97 2.44602 12.006 2.44602 12.043C2.44602 12.422 2.57902 12.77 2.80202 13.042L2.80002 13.039C3.04102 13.337 3.39402 13.535 3.79502 13.569H3.80002H3.91002C4.04502 13.562 4.17102 13.537 4.29002 13.496L4.28002 13.499C4.33702 13.703 4.42902 13.88 4.55202 14.032L4.55002 14.029C4.77702 14.306 5.11002 14.49 5.48502 14.519H5.49002H5.58002C5.93202 14.518 6.25202 14.381 6.49102 14.158L6.49002 14.159L7.12002 13.579L7.49002 13.859C7.60602 13.956 7.73702 14.039 7.87902 14.105L7.89002 14.109C8.04002 14.172 8.21402 14.209 8.39602 14.209C8.40102 14.209 8.40602 14.209 8.41102 14.209H8.66002C9.17202 14.096 9.57202 13.712 9.70802 13.219L9.71002 13.209L10.09 13.489C10.34 13.692 10.662 13.815 11.013 13.815C11.089 13.815 11.165 13.809 11.238 13.798L11.23 13.799C11.794 13.681 12.228 13.237 12.329 12.678L12.33 12.669C12.402 12.681 12.485 12.688 12.57 12.688C12.655 12.688 12.738 12.681 12.819 12.668L12.81 12.669C13.231 12.605 13.586 12.368 13.807 12.034L13.81 12.029C13.973 11.784 14.07 11.484 14.07 11.161C14.07 10.752 13.914 10.379 13.659 10.098L13.66 10.099C14.054 9.81798 14.308 9.36299 14.31 8.84899C14.402 8.79099 14.478 8.71699 14.538 8.63199L14.54 8.62898C15.035 7.84898 15.514 6.94199 15.921 5.99699L15.97 5.86899C16 5.78699 16.017 5.69299 16.017 5.59399C16.017 5.38399 15.938 5.19299 15.809 5.04799L15.81 5.04899V5.04999ZM3.00002 10.75C2.87002 10.741 2.75602 10.677 2.68102 10.581L2.68002 10.58C2.60402 10.485 2.55802 10.364 2.55802 10.232C2.55802 10.217 2.55902 10.203 2.56002 10.188V10.19C2.55902 10.181 2.55902 10.171 2.55902 10.16C2.55902 10.149 2.55902 10.139 2.56002 10.129V10.13C2.72002 10.28 2.92002 10.45 3.19002 10.66C3.13702 10.704 3.07302 10.735 3.00302 10.75H3.00002ZM4.26002 12.47C4.18202 12.544 4.07602 12.589 3.96002 12.59C3.82802 12.579 3.71402 12.511 3.64102 12.411L3.64002 12.41C3.52602 12.309 3.45302 12.163 3.45002 12.001V12C3.45702 11.854 3.52102 11.723 3.62002 11.63L3.91002 11.36L4.00002 11.31L4.82002 11.92L4.26002 12.47ZM5.87002 13.47C5.81002 13.526 5.72902 13.56 5.64002 13.56C5.53902 13.553 5.45002 13.504 5.39102 13.431L5.39002 13.43C5.32702 13.353 5.28902 13.254 5.28902 13.145C5.28902 13.133 5.28902 13.12 5.29102 13.108V13.11C5.29702 12.991 5.35002 12.886 5.43102 12.81L5.71102 12.55L6.36102 13.03L5.87002 13.47ZM12.87 9.41998C12.797 9.41998 12.728 9.40098 12.668 9.36899L12.67 9.36998L12.57 9.30999L8.86002 6.56999C8.78202 6.51799 8.68602 6.48599 8.58302 6.48599C8.30702 6.48599 8.08302 6.70999 8.08302 6.98599C8.08302 7.12899 8.14302 7.25799 8.24002 7.34899L9.67002 8.41898L9.75002 8.49898L12.75 10.719L12.85 10.799C12.931 10.877 12.988 10.98 13.009 11.096L13.01 11.099C13.016 11.13 13.019 11.166 13.019 11.202C13.019 11.316 12.986 11.422 12.928 11.511L12.929 11.509C12.844 11.631 12.706 11.712 12.55 11.719H12.549C12.525 11.724 12.497 11.727 12.469 11.727C12.441 11.727 12.413 11.724 12.386 11.719H12.389C12.324 11.688 12.268 11.651 12.218 11.608L12.219 11.609L7.59902 8.16898C7.53602 8.13898 7.46302 8.12099 7.38502 8.12099C7.10902 8.12099 6.88502 8.34499 6.88502 8.62099C6.88502 8.74199 6.92802 8.85398 7.00002 8.93998L6.99902 8.93899L11.129 11.999C11.182 12.034 11.228 12.074 11.268 12.118L11.269 12.119C11.314 12.174 11.345 12.242 11.359 12.316V12.319C11.363 12.341 11.366 12.367 11.366 12.394C11.366 12.609 11.208 12.787 11.002 12.819H11C10.92 12.819 10.85 12.819 10.7 12.679L6.16002 9.35898C6.07402 9.28699 5.96202 9.24298 5.84002 9.24298C5.56402 9.24298 5.33902 9.46698 5.33902 9.74399C5.33902 9.89799 5.40902 10.037 5.51902 10.128L5.52002 10.129L8.52002 12.349C8.70002 12.479 8.78002 12.549 8.81002 12.719C8.81602 12.745 8.81902 12.774 8.81902 12.804C8.81902 12.996 8.69002 13.158 8.51302 13.208L8.51002 13.209C8.48202 13.218 8.44902 13.223 8.41502 13.223C8.38102 13.223 8.34802 13.218 8.31802 13.208L8.32002 13.209C8.21802 13.147 8.12902 13.078 8.05002 12.999L4.45002 10.329C4.00302 10.013 3.61602 9.70399 3.24502 9.37599L3.26002 9.38898C2.39502 8.50398 1.64502 7.50199 1.03602 6.40999L1.00002 6.33899L3.56002 2.51899L4.09002 2.69898L4.70002 2.90899C4.48802 3.17798 4.36002 3.52199 4.36002 3.89499C4.36002 4.04899 4.38202 4.19899 4.42302 4.33999L4.42002 4.32899C4.52002 4.70299 4.74802 5.01299 5.05402 5.21499L5.06002 5.21899C5.23202 5.34999 5.44402 5.43699 5.67502 5.45899H5.68002L9.41002 5.72899L13 8.37898L13.08 8.45898C13.16 8.53398 13.217 8.63399 13.239 8.74599L13.24 8.74898C13.247 8.78098 13.251 8.81799 13.251 8.85599C13.251 9.12298 13.058 9.34398 12.803 9.38798H12.8L12.87 9.41998ZM13.86 7.79999C13.799 7.73499 13.734 7.67599 13.664 7.62299L13.66 7.61999C13.338 7.33599 12.986 7.05999 12.618 6.80499L12.58 6.77999L12.33 6.59999L10.8 5.46999L10.43 5.19999L10.11 4.94999C9.99002 4.82699 9.83202 4.74099 9.65502 4.71099L9.65002 4.70999L7.85002 4.57999L5.85002 4.42999C5.64902 4.40198 5.48802 4.25499 5.44102 4.06299L5.44002 4.05999C5.42302 4.01099 5.41402 3.95399 5.41402 3.89599C5.41402 3.68799 5.53302 3.50899 5.70702 3.42199L5.71002 3.42099C5.81102 3.38899 5.92702 3.37099 6.04702 3.37099C6.05902 3.37099 6.07002 3.37099 6.08202 3.37198H6.08002L7.28002 3.31199C7.86302 3.30799 8.42802 3.24299 8.97302 3.12198L8.92002 3.13199C10.147 2.85199 11.206 2.50899 12.221 2.08299L12.09 2.13199L15 5.60199C14.61 6.47699 14.229 7.19899 13.808 7.89399L13.86 7.80199V7.79999Z" fill="rgb(34, 34, 34)" fill-opacity="1.00"/></svg>

<!-- Generated by Trend Micro Style Portal -->
<svg version="1.1" xmlns="http://www.w3.org/2000/svg" width="16" height="16" viewBox="0 0 16 16">
  <title>partner-o</title>
  <path fill="rgb(34,34,34)" d="M15.81 5.050l-3.060-3.72c-0.146-0.177-0.365-0.289-0.611-0.289-0.108 0-0.211 0.022-0.305 0.061l0.005-0.002c-0.882 0.371-1.943 0.714-3.038 0.972l-0.142 0.028c-0.436 0.095-0.936 0.15-1.45 0.15h-0.83c-0.818-0.199-1.485-0.405-2.137-0.644l0.137 0.044-0.72-0.24h-0.22c-0.272 0.003-0.511 0.144-0.648 0.357l-0.002 0.003-2.67 4c-0.078 0.123-0.125 0.274-0.125 0.435s0.047 0.312 0.127 0.438l-0.002-0.003c0.538 1.020 1.092 1.891 1.707 2.712l-0.037-0.052c-0.17 0.228-0.279 0.509-0.3 0.815l-0 0.005c-0.002 0.030-0.003 0.066-0.003 0.101 0 0.376 0.133 0.722 0.355 0.991l-0.002-0.003c0.175 0.211 0.406 0.371 0.67 0.457l0.010 0.003c-0.029 0.076-0.053 0.167-0.069 0.261l-0.001 0.009c-0.002 0.031-0.003 0.067-0.003 0.104 0 0.379 0.133 0.727 0.356 0.999l-0.002-0.003c0.241 0.298 0.594 0.496 0.995 0.53l0.005 0h0.11c0.135-0.007 0.261-0.032 0.38-0.073l-0.010 0.003c0.057 0.204 0.149 0.381 0.272 0.533l-0.002-0.003c0.227 0.277 0.56 0.461 0.935 0.49l0.005 0h0.090c0.352-0.001 0.672-0.138 0.911-0.361l-0.001 0.001 0.63-0.58 0.37 0.28c0.116 0.097 0.247 0.18 0.389 0.246l0.011 0.004c0.15 0.063 0.324 0.1 0.506 0.1 0.005 0 0.010-0 0.015-0h0.249c0.512-0.113 0.912-0.497 1.048-0.99l0.002-0.010 0.38 0.28c0.25 0.203 0.572 0.326 0.923 0.326 0.076 0 0.152-0.006 0.225-0.017l-0.008 0.001c0.564-0.118 0.998-0.562 1.099-1.121l0.001-0.009c0.072 0.012 0.155 0.019 0.24 0.019s0.168-0.007 0.249-0.020l-0.009 0.001c0.421-0.064 0.776-0.301 0.997-0.635l0.003-0.005c0.163-0.245 0.26-0.545 0.26-0.868 0-0.409-0.156-0.782-0.411-1.063l0.001 0.001c0.394-0.281 0.648-0.736 0.65-1.25v-0c0.092-0.058 0.168-0.132 0.228-0.217l0.002-0.003c0.495-0.78 0.974-1.687 1.381-2.632l0.049-0.128c0.030-0.082 0.047-0.176 0.047-0.275 0-0.21-0.079-0.401-0.208-0.546l0.001 0.001zM3 10.75v0c-0.13-0.009-0.244-0.073-0.319-0.169l-0.001-0.001c-0.076-0.095-0.122-0.216-0.122-0.348 0-0.015 0.001-0.029 0.002-0.044l-0 0.002c-0.001-0.009-0.001-0.019-0.001-0.030s0-0.021 0.001-0.031l-0 0.001c0.16 0.15 0.36 0.32 0.63 0.53-0.053 0.044-0.117 0.075-0.187 0.090l-0.003 0zM4.26 12.47c-0.078 0.074-0.184 0.119-0.3 0.12h-0c-0.132-0.011-0.246-0.079-0.319-0.179l-0.001-0.001c-0.114-0.101-0.187-0.247-0.19-0.409l-0-0.001c0.007-0.146 0.071-0.277 0.17-0.37l0.29-0.27 0.090-0.050 0.82 0.61zM5.87 13.47c-0.060 0.056-0.141 0.090-0.23 0.090h-0c-0.101-0.007-0.19-0.056-0.249-0.129l-0.001-0.001c-0.063-0.077-0.101-0.176-0.101-0.285 0-0.012 0-0.025 0.002-0.037l-0 0.002c0.006-0.119 0.059-0.224 0.14-0.3l0-0 0.28-0.26 0.65 0.48zM12.87 9.42c-0 0-0.001 0-0.001 0-0.073 0-0.141-0.019-0.201-0.051l0.002 0.001-0.1-0.060-3.71-2.74c-0.078-0.052-0.174-0.084-0.277-0.084-0.276 0-0.5 0.224-0.5 0.5 0 0.143 0.060 0.272 0.157 0.363l0 0 1.43 1.070 0.080 0.080 3 2.22 0.1 0.080c0.081 0.078 0.138 0.181 0.159 0.297l0.001 0.003c0.006 0.031 0.009 0.067 0.009 0.103 0 0.114-0.033 0.22-0.091 0.309l0.001-0.002c-0.085 0.122-0.223 0.203-0.379 0.21l-0.001 0c-0.024 0.005-0.052 0.008-0.080 0.008s-0.056-0.003-0.083-0.008l0.003 0c-0.065-0.031-0.121-0.068-0.171-0.111l0.001 0.001-4.62-3.44c-0.063-0.030-0.136-0.048-0.214-0.048-0.276 0-0.5 0.224-0.5 0.5 0 0.121 0.043 0.233 0.115 0.319l-0.001-0.001 4.13 3.060c0.053 0.035 0.099 0.075 0.139 0.119l0.001 0.001c0.045 0.055 0.076 0.123 0.090 0.197l0 0.003c0.004 0.022 0.007 0.048 0.007 0.075 0 0.215-0.158 0.393-0.364 0.425l-0.002 0c-0.080 0-0.15 0-0.3-0.14l-4.54-3.32c-0.086-0.072-0.198-0.116-0.32-0.116-0.276 0-0.501 0.224-0.501 0.501 0 0.154 0.070 0.293 0.18 0.384l0.001 0.001 3 2.22c0.18 0.13 0.26 0.2 0.29 0.37 0.006 0.026 0.009 0.055 0.009 0.085 0 0.192-0.129 0.354-0.306 0.404l-0.003 0.001c-0.028 0.009-0.061 0.014-0.095 0.014s-0.067-0.005-0.097-0.015l0.002 0.001c-0.102-0.062-0.191-0.131-0.27-0.21l0 0-3.6-2.67c-0.447-0.316-0.834-0.625-1.205-0.953l0.015 0.013c-0.865-0.885-1.615-1.887-2.224-2.979l-0.036-0.071 2.56-3.82 0.53 0.18 0.61 0.21c-0.212 0.269-0.34 0.613-0.34 0.986 0 0.154 0.022 0.304 0.063 0.445l-0.003-0.011c0.1 0.374 0.328 0.684 0.634 0.886l0.006 0.004c0.172 0.131 0.384 0.218 0.615 0.24l0.005 0 3.73 0.27 3.59 2.65 0.080 0.080c0.080 0.075 0.137 0.175 0.159 0.287l0.001 0.003c0.007 0.032 0.011 0.069 0.011 0.107 0 0.267-0.193 0.488-0.448 0.532l-0.003 0zM13.86 7.8c-0.061-0.065-0.126-0.124-0.196-0.177l-0.004-0.003c-0.322-0.284-0.674-0.56-1.042-0.815l-0.038-0.025-0.25-0.18-1.53-1.13-0.37-0.27-0.32-0.25c-0.12-0.123-0.278-0.209-0.455-0.239l-0.005-0.001-1.8-0.13-2-0.15c-0.201-0.028-0.362-0.175-0.409-0.367l-0.001-0.003c-0.017-0.049-0.026-0.106-0.026-0.164 0-0.208 0.119-0.387 0.293-0.474l0.003-0.001c0.101-0.032 0.217-0.050 0.337-0.050 0.012 0 0.023 0 0.035 0.001l-0.002-0 1.2-0.060c0.583-0.004 1.148-0.069 1.693-0.19l-0.053 0.010c1.227-0.28 2.286-0.623 3.301-1.049l-0.131 0.049 2.91 3.47c-0.39 0.875-0.771 1.597-1.192 2.292l0.052-0.092z"></path>
</svg>
